X:193
T:Kiss My Lady TS.193
M:C|
L:1/8
Q:1/2=80
S:Thomas Sands’ MS,1810,Lincolnshire
R:country dance
O:England;Lincolnshire
Z:vmp.Ruairidh Greig, 2011
K:A
E|A2A2A2>c2|B2B2B2d2|cdef edcB|Aagf edcB|
A2A2A2c2|B2B2B2d2|cdefr edcB|A2A2A3:|
|:E|A2e2c2e2|A2f2d2f2|^G2d2B2d2|cdef edcB|
A2a2 e2c2|A2f2d2B2|cBcd edcB|A2A2A3:|
|:F|E2E2C2D2|E2E2E2c2|d2d2d2B2|c2c2c2A2|
G2G2G2G2|A2A2A2A2|f2e2d2c2|c4″min. in ms”B3:|
|:E2d2d2B2|E2c2c2A2|E2d2d2B2|E2c2c2A2|
D2f2f2d2|f2a2f2d2|cBcd edcB|A2A2A4:|

